X: 27010
T: Miss Galvin's
R: hornpipe
M: 4/4
K: Amixolydian
|:A2 eA (3Bcd ed|BG~G2 dGBG|EA ce a2 ed|1 c/d/e dB BAAG:|2 c/d/e dB BAce||
a2 ea~a2 ba|g~e3 ~g3b|a~e3 aged|(3Bcd GA B~A3|
a~e3 agef|g~B3 ~g3a|~b3 a~g3f (3gfe|dged BGA2||

